X:1
T:Title
%%score ( 1 2 ) { ( 3 5 ) | 4 }
L:1/8
Q:1/4=102
M:4/4
K:Eb
V:1 treble nm="Grand Piano, Soprano"
V:2 treble 
V:3 treble nm="Choir Pad, From the Cyber Hymnal™"
V:5 treble 
V:4 bass 
V:1
 [EG]>[FA] [GB]2 [AB]2 [GB]2 | [Ac]>[Ad] [Ge]2 [Ac]2 [GB]2 | [FA]>[EG] [DF]2 [Ad]2 [Ad]2 | %3
w: By~Lelia~Naylor~Morris * * * *|||
 [Ac]>[AB] [Gc]2 [GB]2 [EG]2 | [EG]>[FA] [GB]2 [AB]2 B2 | [Ac]>[Ad] [Be]2 [Bd]2 [Ac]2 | %6
w: |||
 [Bc]>[Bc] [=Ac]2 [Ac]2 ce | z4 =A2 z2 | z8 | z2 .B2 z4 | z8 | z8 | z2 [GB]2 [FB]>[AB] [GB]2- | %13
w: |||||||
 [GB][AB] [AB]2 [Ac][Ad][Af][Ge]- | [Ge]2 [Ge][GB]- [GB][EG][DB][DA]- | %15
w: ||
 [DA][DF][K:bass]B,B, C2 B,2- | B,6 z2 |] %17
w: ||
V:2
 x8 | x8 | x8 | x8 | x8 | x8 | z4 z2 =A2 | [=Ad][Ac] [FB]2 FE [DB]2- | %8
 [DB]2 [GB]2 [FB]>[AB] [GB]2- | [GB][EG]D-[DA] [DG][DF][DF]E- | E2 [EG][GB]- [GB][GB][Ac][Ae]- | %11
 [Ae][EG] [DF]6 | x8 | x8 | x8 | z2[K:bass] E6- | E6 z2 |] %17
V:3
 B,>B, E2 D2 E2 | E>[K:bass]B, B,2 E2 E2 | B,>B, B,2 B,2 B,2 | B,>B, E2 E2 B,2 | %4
 B,>B,[K:treble] E2 D2 E2 | E>E E2 E2 E2 | =E>E F2 F2 _EC | FE D2 C2 B,2- | B,2 E2 D>D E2- | %9
 E[K:bass]B, B,2 B,B,A,G, | G,G, B,2[K:treble] E2 E2 | C2 B,2 B,>[K:bass]B, z A, | %12
 G,F,[K:treble] E2 D>D F2- | FD D2[K:bass] B,B,B,B, | B,B, B,2 B,2 B,2 | B,2 G,G, A,2 G,2- | %16
 G,6 z2 |] %17
V:4
 E,>E, E,2 F,2 G,2 | A,>F, E,2 E,2 E,2 | E,>E, B,,2 B,,2 B,,2 | B,,>B,, E,2 E,2 E,2 | %4
 E,>E, E,2 F,2 G,2 | A,>A, G,2 G,2 A,2 | G,>G, F,2 F,2 F,2 | F,F, F,2 F,2 B,,2- | %8
 B,,2 E,2 B,,>B,, E,2- | E,E, B,,2 B,,B,,E,E, | E,E, E,2 E,2 A,2 | A,2 z2 z4 | %12
 z2 E,2 B,,>B,, E,2- | E,B,, B,,2 B,,B,,B,,E, | E,E, E,2 E,2 B,,2 | B,,2 E,E, E,2 E,2- | E,6 z2 |] %17
V:5
 x8 | x3/2[K:bass] x13/2 | x8 | x8 | x2[K:treble] x6 | x8 | x8 | x8 | x8 | x[K:bass] x7 | %10
 x4[K:treble] x4 | z4 z2[K:bass] B,2 | x2[K:treble] x6 | x4[K:bass] x4 | x8 | x8 | x8 |] %17

